X:1
T:Go Down, Old Hannah
M:4/4
L:1/8
K:C
 A2 F6| A2 C3- D C2| C2- C4 CD| F6 A2| c6 CD| F8| A_B c2-f-_e f2| f4 z2 A2|\
F-C _E2 F3 z|
